X:1
T:Mehlville, 11.11.11.11
T:Mehlville, 11.11.11.11
T:Anthony Johnson Showalter, 1904
T:Public Domain Courtesy of the Cyber Hymnal™
C:Anthony Johnson Showalter, 1904
Z:Public Domain
Z:Courtesy of the Cyber Hymnal™
%%score ( 1 2 ) ( 3 4 )
L:1/8
Q:1/4=110
M:4/4
K:G
V:1 treble 
V:2 treble 
V:3 bass 
V:4 bass 
V:1
 [DB]4 [CA]2 [B,G]2 | [CE]2 [EG]4 z2 | D4 [B,G]2 [DG]2 | [GB]2 G2 [FA]4 | [DB]4 [CA]2 [B,G]2 | %5
 [CE]2 [EG]4 z2 | D4 [DG]2 G2 | [GB]2 [FA]2 G4 | [Gd]4 [Ge]2 [Gd]2 | [GB]2 [Gd]4 z2 | %10
 [Gd]4 [Ge]2 [Gd]2 | [GB]2 G2 [FA]4 | [DB]4 [CA]2 [B,G]2 | [CE]2 [EG]4 z2 | D4 [DG]2 G2 | %15
 [GB]2 [FA]2 G4 |] %16
V:2
 x8 | x8 | D4 x4 | x2 G2 x4 | x8 | x8 | D4 G2 x2 | x4 G4 | x8 | x8 | x8 | x2 G2 x4 | x8 | x8 | %14
 D4 G2 x2 | x4 G4 |] %16
V:3
 G,4 [D,F,]2 [E,G,]2 | [C,G,]2 [C,G,]4 z2 | [B,,G,]4 [G,,G,]2 [G,,B,]2 | [G,D]2 [B,,D]2 [D,D]4 | %4
 G,4 [D,F,]2 [E,G,]2 | [C,G,]2 [C,G,]4 z2 | [B,,G,]4 [G,,B,]2 [B,,D]2 | [D,D]2 [D,C]2 [G,,B,]4 | %8
 [G,B,]4 [G,C]2 [G,B,]2 | [G,D]2 [G,B,]4 z2 | [G,B,]4 [G,C]2 [G,B,]2 | [G,D]2 [B,,D]2 [D,D]4 | %12
 G,4 [D,F,]2 [E,G,]2 | [C,G,]2 [C,G,]4 z2 | [B,,G,]4 [G,,B,]2 [B,,D]2 | [D,D]2 [D,C]2 [G,,B,]4 |] %16
V:4
 G,4 x4 | x8 | x8 | x8 | G,4 x4 | x8 | x8 | x8 | x8 | x8 | x8 | x8 | G,4 x4 | x8 | x8 | x8 |] %16

